X:1
T:Navvy on the Line, The
R:reel
D:Bothy Band: 1975
Z:id:hn-reel-324
M:4/4
L:1/8
K:G
Bdge dBGB|AGAB AGEF|1 G2ge dBGB|AGAB A2GA:|2 ~g3d edBG|AGFA G2Gg|]
g2BA GABd|edBA GABd|1 g2BA GABd|eBdB ABcd:|2 ~g3d edBG|AGFA G2GA|]
</abc>
